svg/Filled/bookmark_filled.svg

<svg viewBox="0 0 24 24" xmlns="http://www.w3.org/2000/svg" width="24" height="24"><path d="M15.87 2.05a3.1 3.1 0 0 1 3.15 3.12v12.89q0 .94-.03 1.54c-.03.37-.1.82-.4 1.16-.38.43-.94.64-1.51.58a2 2 0 0 1-1.08-.58q-.43-.41-1.06-1.11L12.6 17.1l-.44-.47-.1-.08a.3.3 0 0 0-.16 0l-.1.08-.45.46-2.28 2.45q-.64.7-1.07 1.1c-.27.24-.63.52-1.07.56a1.8 1.8 0 0 1-1.5-.59 2 2 0 0 1-.4-1.15q-.04-.59-.03-1.52V5.16a3.07 3.07 0 0 1 3.13-3.11z"/></svg>

<svg viewBox="0 0 24 24" xmlns="http://www.w3.org/2000/svg" width="24" height="24"><path d="M15.87 2.05A3.1 3.1 0 0 1 19.02 5.17L19.02 18.06Q19.02 19 18.99 19.6C18.96 19.97 18.89 20.42 18.59 20.76C18.21 21.19 17.65 21.4 17.08 21.34A2 2 0 0 1 16 20.76Q15.57 20.35 14.94 19.65L12.06 16.55A.3 .3 0 0 0 11.9 16.55L11.35 17.09L9.07 19.54Q8.43 20.24 8 20.64C7.73 20.88 7.37 21.16 6.93 21.2A1.8 1.8 0 0 1 5.43 20.61A2 2 0 0 1 5.03 19.46Q4.99 18.87 5 17.94L5 5.16A3.07 3.07 0 0 1 8.13 2.05Z"/></svg>
